src/asset/120/invest.svg

<svg width="120" height="120" viewBox="0 0 120 120" fill="none" xmlns="http://www.w3.org/2000/svg">
    <path d="M76.6978 44.5842C70.3644 44.5842 65.2326 49.7132 65.2326 55.9978V64.0055H60.8746V41.6649H68.8982C75.2315 41.6649 80.3837 36.5359 80.3837 30.2311V19H69.0815C62.7481 19 57.6163 24.129 57.6163 30.4136V35.6237V41.6649V55.8762H53.7674V47.8684C53.7674 41.5636 48.6152 36.4548 42.3023 36.4548H31V47.686C31 53.9908 36.1522 59.1198 42.4855 59.1198H50.3258H53.7878H57.6163V74H60.8746V67.2492H65.2326H66.8617H76.5145C82.8478 67.2492 88 62.1202 88 55.8153V44.5842H76.6978Z" fill="url(#ew8ugnwe98gu)"/>
    <path fill-rule="evenodd" clip-rule="evenodd" d="M34.1211 101.899V73.141H85.8792V101.899H34.1211ZM43.715 76.3632L37.346 82.7271L37.3258 92.1118L43.8963 98.6771H76.0839L82.6545 92.1118V82.7472L76.2653 76.3632H43.715ZM37.3459 98.4958L37.5273 98.6771H37.3459V98.4958ZM82.6343 98.4757L82.4327 98.6771H82.6343V98.4757Z" fill="url(#wgwe98fguwen)"/>
    <path fill-rule="evenodd" clip-rule="evenodd" d="M67.5785 87.5202C67.5785 91.6889 64.1723 95.0924 60.0002 95.0924C55.8079 95.0924 52.4219 91.6889 52.4219 87.5202C52.4219 83.3514 55.8281 79.9479 60.0002 79.9479C64.1723 79.9479 67.5785 83.3514 67.5785 87.5202ZM64.3537 87.5202C64.3537 85.1236 62.3987 83.1702 60.0002 83.1702C57.5816 83.1702 55.6467 85.1236 55.6467 87.5202C55.6467 89.9167 57.6018 91.8702 60.0002 91.8702C62.3987 91.8702 64.3537 89.9167 64.3537 87.5202Z" fill="url(#wegunew9guewngfm)"/>
    <defs>
        <linearGradient id="ew8ugnwe98gu" x1="31" y1="74" x2="85.9649" y2="17.0363" gradientUnits="userSpaceOnUse">
            <stop stop-color="#FFC75D"/>
            <stop offset="1" stop-color="#FFA363"/>
        </linearGradient>
        <linearGradient id="wgwe98fguwen" x1="87.5737" y1="108.575" x2="57.7597" y2="123.292" gradientUnits="userSpaceOnUse">
            <stop stop-color="#658BF5"/>
            <stop offset="1" stop-color="#8DB0FF"/>
        </linearGradient>
        <linearGradient id="wegunew9guewngfm" x1="87.5737" y1="108.575" x2="57.7597" y2="123.292" gradientUnits="userSpaceOnUse">
            <stop stop-color="#658BF5"/>
            <stop offset="1" stop-color="#8DB0FF"/>
        </linearGradient>
    </defs>
</svg>

<svg width="120" height="120" fill="none" xmlns="http://www.w3.org/2000/svg"><path d="M76.698 44.584c-6.334 0-11.465 5.13-11.465 11.414v8.008h-4.358V41.664h8.023c6.334 0 11.486-5.13 11.486-11.434V19H69.082c-6.334 0-11.466 5.129-11.466 11.414v25.462h-3.849v-8.008c0-6.304-5.152-11.413-11.465-11.413H31v11.231c0 6.305 5.152 11.434 11.486 11.434H57.615V74h3.259v-6.75h15.64C82.847 67.25 88 62.12 88 55.814v-11.23H76.698z" fill="url(#ew8ugnwe98gu)"/><path fill-rule="evenodd" clip-rule="evenodd" d="M34.121 101.899V73.141H85.88v28.758H34.121zm9.594-25.536l-6.369 6.364-.02 9.385 6.57 6.565h32.188l6.57-6.565v-9.365l-6.389-6.384h-32.55zm-6.37 22.133l.182.181h-.181v-.181zm45.29-.02l-.202.201h.201v-.201z" fill="url(#wgwe98fguwen)"/><path fill-rule="evenodd" clip-rule="evenodd" d="M67.579 87.52c0 4.169-3.407 7.572-7.579 7.572a7.58 7.58 0 01-7.578-7.572c0-4.169 3.406-7.572 7.578-7.572 4.172 0 7.579 3.403 7.579 7.572zm-3.225 0A4.36 4.36 0 0060 83.17a4.346 4.346 0 00-4.353 4.35A4.36 4.36 0 0060 91.87a4.36 4.36 0 004.354-4.35z" fill="url(#wegunew9guewngfm)"/><defs><linearGradient id="ew8ugnwe98gu" x1="31" y1="74" x2="85.965" y2="17.036" gradientUnits="userSpaceOnUse"><stop stop-color="#FFC75D"/><stop offset="1" stop-color="#FFA363"/></linearGradient><linearGradient id="wgwe98fguwen" x1="87.574" y1="108.575" x2="57.76" y2="123.292" gradientUnits="userSpaceOnUse"><stop stop-color="#658BF5"/><stop offset="1" stop-color="#8DB0FF"/></linearGradient><linearGradient id="wegunew9guewngfm" x1="87.574" y1="108.575" x2="57.76" y2="123.292" gradientUnits="userSpaceOnUse"><stop stop-color="#658BF5"/><stop offset="1" stop-color="#8DB0FF"/></linearGradient></defs></svg>
